**kern	**kern
*staff1	*staff1
*head1[head1a]	*head1[head1a]
*solo1[solo1a]	*solo1[solo1a]
=1-	=1-
*clefG2	*clefG2
*k[]	*k[]
*B-:	*B-:
*M4/4	*M4/4
1r	.
=2	=2
1r	.
=3	=3
1r	.
=4	=4
2r	.
4r	.
8r	.
*>head1a	*>head1a
{8f/	.
=5	=5
8cc\L	1B-:maj
16dd\L	.
16cc\J	.
8b-\	.
8f\J	.
8cc\L	.
8b-\J	.
4r	.
=6	=6
4B-/	1B-:maj
4B-/	.
4r	.
8r	.
8f/	.
=7	=7
8cc\L	1B-:maj
16dd\L	.
16cc\J	.
8b-\	.
8f\J	.
8cc\L	.
8b-\J	.
4r	.
=8	=8
4B-/	1B-:maj
4B-/	.
4r	.
8r	.
8cc\	.
=9	=9
8b-/L	1B-:maj
8f/	.
8g-/	.
8e-/J	.
8d/L	.
8f/	.
8c/	.
8B-/J	.
=10	=10
8B/L	1B:maj
8f#/	.
8g#/	.
[8cc#/J	.
4.cc#\]	.
8fn/	.
=11	=11
8cc\L	1B-:maj
16dd\L	.
16cc\J	.
8b-\	.
8f\J	.
8b-/L	.
8f/	.
8a/	.
8b-/J}	.
=12	=12
2r	1B-:maj
4r	.
8r	.
8f/	.
=13	=13
4r	1D:dom
*>head1b	*>head1b
{24g/LL	.
24a/	.
24g/JJ	.
8e/	.
8f#/L	.
8dd/J	.
4r	.
=14:|!	=14:|!
24g/LL	1D:dom
24a/	.
24g/JJ	.
8e/L	.
8f#/	.
8dd/J	.
2r	.
=15	=15
4r	1G:dom
24cc\LL	.
24dd\	.
24cc\JJ	.
8a/	.
8b\L	.
8gg\J	.
4r	.
=16	=16
24cc\LL	1G:dom
24dd\	.
24cc\JJ	.
8a\L	.
8b\	.
8gg\J	.
2r	.
=17	=17
4r	1C:dom
24f/LL	.
24g/	.
24f/JJ	.
8d/	.
8e/L	.
8cc/J	.
4r	.
=18	=18
24f/LL	1C:dom
24g/	.
24f/JJ	.
8d/L	.
8e/	.
8cc/J	.
2r	.
=19	=19
4r	1F:dom
24b-\LL	.
24cc\	.
24b-\JJ	.
8g/	.
8a/L	.
8ff/J	.
4r	.
=20	=20
24b-\LL	1F:dom
24cc\	.
24b-\JJ	.
8g/L	.
8a/	.
8cc/J}	.
4r	.
8r	.
*>head1aa	*>head1aa
{8f/	.
=21	=21
8cc\L	1B-:maj
16dd\L	.
16cc\J	.
8b-\	.
8f\J	.
8cc\L	.
8b-\J	.
4r	.
=22||	=22||
4B-/	1B-:maj
4B-/	.
4r	.
8r	.
8f/	.
=23	=23
8cc\L	1B-:maj
16dd\L	.
16cc\J	.
8b-\	.
8f\J	.
8cc\L	.
8b-\J	.
4r	.
=24	=24
4B-/	1B-:maj
4B-/	.
4r	.
8r	.
8cc\	.
=25	=25
8b-/L	1B-:maj
8f/	.
8g-/	.
8e-/J	.
8d/L	.
8f/	.
8c/	.
8B-/J	.
=26	=26
8B/L	1C-:maj
8f#/	.
8g#/	.
[8cc#/J	.
4.cc#\]	.
8fn/	.
=27	=27
8cc\L	1B-:maj
16dd-\L	.
16cc\J	.
8b-\	.
8f\J	.
8b-/L	.
8f/	.
8a/	.
8b-/J}	.
=28	=28
1r	1B-:maj
=29	=29
2r	1B-:maj
*>solo1a	*>solo1a
{4A/	.
8d/L	.
[8e/J	.
=30||	=30||
8e/L]	2C:min
[8e-/J	.
2e-/]	.
8d-/L	.
16e-/L	2F:dom
[16d-/JJ	.
=31	=31
8d-/L]	1B-:maj
8B-/J}	.
4r	.
2r	.
=32	=32
8r	2C:min
{16cc\LL	.
16b\J	.
8b-\	.
8a\J	.
8a-/L	2F:dom
8c/	.
8c#/	.
8d/J	.
=33	=33
8g/L	1B-:dom
8g-/	.
8f/	.
[8e-/J	.
8e-/L]	.
16f/L	.
16e-/J	.
8B-/	.
8A-/J	.
=34	=34
4G/	2E-:maj
8b-\L	.
16bn\L	.
16b-\JJ	.
8g-/L	2E-:min
8f/	.
8e-/	.
8c#/J	.
=35	=35
4d/	1B-:maj
4r	.
4B-/}	.
4r	.
=36	=36
2r	2C:min
4r	2F:dom
{12f/L	.
12g/	.
12b-/J	.
=37	=37
4.dd\	1B-:maj
8ff\	.
8dd\	.
4g/	.
[8dd-\	.
=38||	=38||
8dd-/L]	2C:min
[8g/J	.
4g/]}	.
2r	2F:dom
=39	=39
8r	1B-:maj
{8c#/	.
16d/LL	.
16f/	.
16g/	.
16a/JJ	.
16cc/LL	.
16b-/	.
16a/	.
16g/JJ	.
16f#/LL	.
16g/	.
16b-/	.
16g/JJ	.
=40	=40
16e-/LL	2C:min
16d/	.
16c/	.
16B-/JJ	.
16A/LL	.
16c/	.
16e-/	.
16g-/JJ	.
4f/	2F:dom
8r	.
8e-/	.
=41	=41
8d/L	1B-:dom
8B-/	.
8Bn/	.
8c/J	.
8A-/L	.
8G-/J	.
12Gn/L	.
12B-/	.
12c/J	.
=42	=42
8d-/L	1E-:dom
8B-/	.
8c/	.
8d-/J	.
24c/LL	.
24d-/	.
24c/JJ	.
8B-/L	.
8d-/	.
8B-/J	.
=43	=43
8c/L	1B-:maj
8B-/J	.
12A/L	.
12B-/	.
12c/J	.
8d/L	.
8B-/J}	.
4r	.
=44	=44
1r	1B-:maj
=45	=45
8r	1D:dom
*>solo1b	*>solo1b
{16cc\LL	.
16b-\J	.
8a\	.
8dd\J	.
8ee-/L	.
8b-/	.
8g/	.
8e-/J	.
=46||	=46||
8d/L	1D:dom
8f#/	.
8a/	.
8cc/J	.
8b-/L	.
8f#/	.
8e-/	.
8c/J	.
=47	=47
8B/L	1G:dom
16d/L	.
16f/J	.
8a/	.
8f/J	.
8b-/L	.
8g-/	.
8e-/	.
8c/J	.
=48	=48
12B/L	1G:dom
12d/	.
12f/J	.
8a/	.
8r	.
16ee-\LL	.
16dd-\	.
16b\	.
16a-\J	.
8f\J}	.
8r	.
=49	=49
4r	1C:dom
8r	.
{16e/LL	.
16f/JJ	.
16g\LL	.
16a\	.
16b-\	.
16cc\J	.
8dd\	.
8cc\J	.
=50	=50
8b-/L	1C:dom
8a/	.
8g/	.
8f/J	.
12e/L	.
12g/	.
12b-/J	.
8dd\L	.
8dd-\J	.
=51	=51
8cc\L	1F:dom
8b\	.
8b-\	.
8a\J	.
8g/L	.
8f/	.
8e-/	.
8G/J	.
=52	=52
8B-/L	1F:dom
8d/	.
8c/	.
8B-/J	.
12A/L	.
12c/	.
12e-/J	.
16f/LL	.
16g-/J	.
[8f/J	.
=53	=53
8f/]}	1B-:maj
8r	.
4r	.
2r	.
=54||	=54||
*>solo1aa	*>solo1aa
{8e/L	2C:min
[8e-/J	.
2.e-/_	2F:dom
=55	=55
4e-/]	1B-:maj
4c/	.
8B-/L	.
8A-/	.
8G/	.
8G-/J	.
=56	=56
8F/L	2C:min
8E/	.
8E-/	.
8F/J	.
2d/	2F:dom
=57	=57
8c/L	1B-:dom
8B/	.
8B-/	.
8A/J	.
8A-/L	.
8G/	.
8G-/	.
8B-/J	.
=58	=58
8f/L	2E-:maj
[8e-/J	.
4e-/]}	.
2r	2E-:min
=59	=59
2r	1B-:maj
{12f/L	.
12g/	.
12b-/J	.
8dd-\L	.
16ee-\L	.
16dd-\JJ	.
=60	=60
8b-\L	2C:min
8cc\	.
8b-\	.
8a-\J	.
8g/L	2F:dom
8f/	.
8e-/	.
8B-/J	.
=61	=61
2d/}	1B-:maj
2r	.
==	==
*-	*-
